X:90
M:C|
L:1/8
Q:140
K:G
g2f2 g2e2|d6 ef|g2f2 g2e2|d6 e2|f2g2 f2g2|d6 c2|B2 AA GFGA|1 G6 f2:|2 G6 G2|:

